openmetadata-ui/src/main/resources/ui/src/assets/svg/circle-checkbox.svg

<svg width="42" height="42" viewBox="0 0 42 42" fill="none" xmlns="http://www.w3.org/2000/svg">
<path d="M40.7991 5.74129C40.1812 5.12237 39.1787 5.1213 38.5608 5.73867L19.5712 24.6782L12.7198 17.2369C12.1277 16.5943 11.1268 16.5526 10.4831 17.1445C9.83989 17.7366 9.79871 18.738 10.3907 19.3812L18.3581 28.0339C18.6499 28.3511 19.0582 28.5352 19.4888 28.5442C19.5004 28.5447 19.5115 28.5447 19.5226 28.5447C19.9411 28.5447 20.3436 28.3785 20.6401 28.083L40.7959 7.98001C41.4154 7.36272 41.4164 6.36022 40.7991 5.74129Z" fill="#35198E"/>
<path d="M40.417 19.417C39.5428 19.417 38.8342 20.1256 38.8342 21C38.8342 30.8342 30.8342 38.8342 21 38.8342C11.1664 38.8342 3.16583 30.8342 3.16583 21C3.16583 11.1664 11.1664 3.16583 21 3.16583C21.8743 3.16583 22.583 2.45725 22.583 1.58296C22.583 0.708586 21.8743 0 21 0C9.42047 0 0 9.42047 0 21C0 32.579 9.42047 42 21 42C32.579 42 42 32.579 42 21C42 20.1257 41.2914 19.417 40.417 19.417Z" fill="#35198E"/>
</svg>

<svg xmlns="http://www.w3.org/2000/svg" width="42" height="42" fill="none"><path fill="#35198E" d="M40.8 5.741a1.583 1.583 0 0 0-2.24-.002l-18.989 18.94-6.851-7.442a1.584 1.584 0 0 0-2.33 2.144l7.968 8.653a1.581 1.581 0 0 0 2.282.049L40.796 7.98c.62-.617.62-1.62.003-2.239Z"/><path fill="#35198E" d="M40.417 19.417c-.874 0-1.583.709-1.583 1.583 0 9.834-8 17.834-17.834 17.834S3.166 30.834 3.166 21 11.166 3.166 21 3.166A1.583 1.583 0 1 0 21 0C9.42 0 0 9.42 0 21c0 11.579 9.42 21 21 21 11.579 0 21-9.421 21-21 0-.874-.709-1.583-1.583-1.583Z"/></svg>
